trunk/public/assets/images/icons/black/roles.svg

<svg width="16" height="16" xmlns="http://www.w3.org/2000/svg" viewBox="0 0 16 16" shape-rendering="geometricPrecision"><path d="M2.138 11.963c.624 0 1.128-.506 1.128-1.13 0-.622-.504-1.128-1.128-1.128-.623 0-1.13.506-1.13 1.128 0 .624.507 1.13 1.13 1.13zm1.05.536H1.084c-.6 0-1.085.49-1.085 1.087V15h4.276v-1.413c0-.598-.49-1.088-1.09-1.088zM13.862 11.963c.626 0 1.13-.506 1.13-1.13 0-.622-.504-1.128-1.13-1.128-.623 0-1.128.506-1.128 1.128 0 .624.505 1.13 1.128 1.13zm1.05.536H12.81c-.6 0-1.086.49-1.086 1.087V15H16v-1.413c0-.598-.49-1.088-1.09-1.088zM8.018 2.257c.624 0 1.128-.505 1.128-1.13S8.642 0 8.018 0c-.624 0-1.13.504-1.13 1.128s.506 1.13 1.13 1.13zm1.05.537H6.964c-.6 0-1.085.49-1.085 1.088v1.413h4.276V3.882c0-.6-.49-1.088-1.09-1.088zM8.528 6.99V5.984h-1.02V6.99H1.984v1.984H3.04V8h9.973v.973h.945V6.99"/></svg>

<?xml version="1.0"?><!DOCTYPE svg PUBLIC "-//W3C//DTD SVG 1.1//EN" "http://www.w3.org/Graphics/SVG/1.1/DTD/svg11.dtd"><svg width="16px" height="16px" xmlns="http://www.w3.org/2000/svg" viewBox="0 0 16 16" shape-rendering="geometricPrecision" fill="#000"><g><g><g><path d="M2.138,11.963c0.624,0,1.128-0.506,1.128-1.13c0-0.622-0.504-1.128-1.128-1.128c-0.623,0-1.13,0.506-1.13,1.128 C1.008,11.457,1.515,11.963,2.138,11.963z M3.187,12.499H1.085C0.486,12.499,0,12.989,0,13.587v1.414h4.276v-1.414 C4.276,12.989,3.786,12.499,3.187,12.499z"/></g><g><path d="M13.862,11.963c0.626,0,1.13-0.506,1.13-1.13c0-0.622-0.504-1.128-1.13-1.128c-0.623,0-1.128,0.506-1.128,1.128 C12.734,11.457,13.239,11.963,13.862,11.963z M14.911,12.499H12.81c-0.599,0-1.086,0.49-1.086,1.088v1.414H16v-1.414 C16,12.989,15.509,12.499,14.911,12.499z"/></g><g><path d="M8.018,2.257c0.624,0,1.128-0.505,1.128-1.129S8.642,0,8.018,0c-0.624,0-1.13,0.504-1.13,1.128S7.394,2.257,8.018,2.257 z M9.067,2.794H6.965c-0.599,0-1.085,0.489-1.085,1.088v1.413h4.276V3.882C10.156,3.283,9.666,2.794,9.067,2.794z"/></g></g><polygon points="8.528,6.989 8.528,5.985 7.508,5.985 7.508,6.989 1.984,6.989 1.984,7.586 1.984,8.001 1.984,8.973 3.041,8.973 3.041,8.001 13.013,8.001 13.013,8.973 13.958,8.973 13.958,8.001 13.958,7.586 13.958,6.989"/></g></svg>
